src/images/mobile-icons/comment.svg

<svg viewBox="0 0 512 512" xmlns="http://www.w3.org/2000/svg" xmlns:xlink="http://www.w3.org/1999/xlink">
  <title>comment</title>
  <path d="M392.533333,128 C410.767817,127.484251 426.006148,141.770186 426.666667,160 L426.666667,160 L426.666667,352 C426.006148,370.229814 410.767817,384.515749 392.533333,384 L392.533333,384 L149.333333,384 L110.891947,422.440107 C106.610237,426.722326 100.170533,428.00354 94.5758229,425.686288 C88.981113,423.369036 85.3333333,417.909692 85.3333333,411.85408 L85.3333333,411.85408 L85.3333333,160 C85.9938517,141.770186 101.232183,127.484251 119.466667,128 L119.466667,128 Z M170.666667,234.666667 C158.884592,234.666667 149.333333,244.217925 149.333333,256 C149.333333,267.782075 158.884592,277.333333 170.666667,277.333333 C182.448741,277.333333 192,267.782075 192,256 C192,244.217925 182.448741,234.666667 170.666667,234.666667 Z M341.333333,234.666667 C329.551259,234.666667 320,244.217925 320,256 C320,267.782075 329.551259,277.333333 341.333333,277.333333 C353.115408,277.333333 362.666667,267.782075 362.666667,256 C362.666667,244.217925 353.115408,234.666667 341.333333,234.666667 Z M256,234.666667 C244.217925,234.666667 234.666667,244.217925 234.666667,256 C234.666667,267.782075 244.217925,277.333333 256,277.333333 C267.782075,277.333333 277.333333,267.782075 277.333333,256 C277.333333,244.217925 267.782075,234.666667 256,234.666667 Z" fill="#000" fill-rule="nonzero" stroke="none" stroke-width="1"></path>
</svg>

<svg viewBox="0 0 512 512" xmlns="http://www.w3.org/2000/svg" xmlns:xlink="http://www.w3.org/1999/xlink">
  <title>comment</title>
  <path d="M392.533 128c18.235-.516 33.473 13.77 34.134 32v192c-.66 18.23-15.9 32.516-34.134 32h-243.2l-38.441 38.44a14.972 14.972 0 01-25.559-10.586V160c.66-18.23 15.9-32.516 34.134-32zM170.667 234.667c-11.782 0-21.334 9.55-21.334 21.333 0 11.782 9.552 21.333 21.334 21.333S192 267.783 192 256c0-11.782-9.551-21.333-21.333-21.333zm170.666 0c-11.782 0-21.333 9.55-21.333 21.333 0 11.782 9.551 21.333 21.333 21.333 11.782 0 21.334-9.55 21.334-21.333 0-11.782-9.552-21.333-21.334-21.333zm-85.333 0c-11.782 0-21.333 9.55-21.333 21.333 0 11.782 9.55 21.333 21.333 21.333 11.782 0 21.333-9.55 21.333-21.333 0-11.782-9.55-21.333-21.333-21.333z" fill="#000" fill-rule="nonzero" stroke="none" stroke-width="1"></path>
</svg>
